X: 1
T: the Milton Strathspey
C: James Stevenson (1996)
R: strathspey
B: The Tin Woodsman
Z: John Chambers <jc:trillian.mit.edu>
N:
M: C
L: 1/8
K: G
d2 \
| "G"B<d d>g "Am"e<c A>c \
| "Bm"B<F F>D "C"E2 "D7"d>c \
| "G"B<d d>g "C"e<c a>g \
| "D7"f>d c<d "G"B2 d2 |
| "G"B<d d>g "Am"e<c A>c \
| "Bm"B<F F>D "C"E2 "D7"D>C \
| "G"B,>D GA E>G \
| "D7"(3FDd (3cBA "G"G2 ||
G>F \
| "C"E<G G>E "G"D2 B,2 \
| "Am"C>B, "D7"C>D "G"B,2 G>F \
| "C"E<G G>E "G"D2 G2 \
| "A7"A>G Af |
| "Em"e<g g>e "Bm"d2 B2 \
| "Am"A>B A>G "C"E2 "D7"D>C \
| "G"B,>D GA E>G \
| "D7"(3FDd (3cBA "G"G2 ||
